X:1
T:RVW2/1/4 I Courted a Dark Girl (The False Lover)-0
T:RVW2/1/4 I Courted a Dark Girl (The False Lover)-0
T:Sung by Mr. Ansell in the Bell, Kersey, Aug 31st 1907 (3 of 3)
T:Transcribed by Simon Furey and Lewis Jones
C:Transcribed by Simon Furey and Lewis Jones
L:1/8
Q:1/4=100
M:6/8
K:G
V:1 treble 
V:1
"^(editorial suggestion)" D | GED G2 D | GBd d2 B | ccA B2 G | AGE D2 B | Bcd EFG | ABA"^(a)" GFD | %7
 E>FG AFE | D G2- G2 || D | GED G2 D | GBd d2 B | ccA B2 G | AGE D2 B | Bcd EFG | %15
 ABA"^(a) var." GF/E/D | E>FG AFE | D G2- G2 |] %18
"^E2 | EB BA G2 G2 | AB AG F2 A2 | G2 GF E2 dc | B6" a Be | %19

